ukkk.svg

<svg height="62" viewBox="0 0 72 62" width="72" xmlns="http://www.w3.org/2000/svg"><path d="m0 17.979v7.882h11.256zm9.328 43.882h16.672v-11.674zm36.672-11.672v11.672h16.67zm-46-4.328v7.882l11.26-7.882zm62.674-36h-16.674v11.674zm9.326 43.884v-7.884h-11.262zm0-27.884v-7.882l-11.258 7.882zm-46-16h-16.672l16.672 11.674z" fill="#00247d"/><path d="m50.28 45.861 19.424 13.602c.942-.958 1.616-2.164 1.98-3.498l-14.43-10.104zm-24.28 0h-4.282l-19.422 13.6c1.042 1.06 2.378 1.818 3.876 2.17l19.828-13.884zm20-20h4.282l19.422-13.6c-1.042-1.06-2.376-1.818-3.874-2.17l-19.83 13.884zm-24.282 0-19.422-13.6c-.942.96-1.616 2.164-1.982 3.498l14.43 10.102z" fill="#cf1b2b"/><path d="m72 41.861h-30v20h4v-11.672l16.67 11.672h1.33c2.234 0 4.252-.922 5.704-2.398l-19.424-13.602h6.974l14.43 10.104c.186-.674.316-1.372.316-2.104v-.116l-11.262-7.884h11.262zm-72 0v4h11.26l-11.26 7.882v.118c0 2.182.878 4.156 2.296 5.6l19.422-13.6h4.282v1.886l-19.828 13.882c.588.14 1.196.232 1.828.232h1.328l16.672-11.674v11.674h4v-20zm72-24c0-2.182-.878-4.156-2.296-5.6l-19.422 13.6h-4.282v-1.886l19.83-13.884c-.59-.138-1.198-.23-1.83-.23h-1.326l-16.674 11.674v-11.674h-4v20h30v-4h-11.258l11.258-7.882zm-46-8v11.674l-16.672-11.674h-1.328c-2.236 0-4.252.922-5.704 2.4l19.422 13.6h-6.974l-14.43-10.102c-.184.674-.314 1.37-.314 2.102v.118l11.256 7.882h-11.256v4h30v-20z" fill="#eee"/><path d="m42 29.861v-20h-12v20h-30v12h30v20h12v-20h30v-12z" fill="#cf1b2b"/><path d="m72 20.054c0-2.176-.387-4.263-1.098-6.194-.485 5.689-3.518 8.611-6.687 7.25-2.969-1.275-.968-6.246-.82-8.618.249-4.021-.013-8.623-7.317-12.45 3.035 5.806.352 9.413-2.463 9.633-3.122.243-5.982-2.684-4.926-7.434-3.418 2.519-3.518 6.758-2.463 9.5 1.1 2.859-.044 5.234-2.727 5.498-2.998.296-4.663-3.21-3.127-8.796-2.659 3.13-4.263 7.183-4.263 11.611 0 9.912 8.034 17.946 17.945 17.946 9.912 0 17.946-8.034 17.946-17.946z" fill="#f4900c"/><path d="m65.027 25.332c.156 3.255-2.704 4.531-4.243 3.915-2.223-.89-1.627-2.419-2.199-5.585-.572-3.167-2.771-5.366-6.025-6.334 2.375 6.685-1.317 9.149-3.252 9.589-1.976.45-3.961-.001-4.188-4.23-2.306 2.295-3.733 5.47-3.733 8.979 0 .389.024.771.058 1.151 3.241 3.203 7.692 5.183 12.609 5.183 4.918 0 9.369-1.98 12.61-5.183.034-.38.058-.762.058-1.151 0-2.308-.617-4.471-1.695-6.334z" fill="#ffcc4d"/></svg>

<svg xmlns="http://www.w3.org/2000/svg" width="72" height="62" viewBox="0 0 72 62"><path fill="#00247d" d="M0 17.979 L0 25.861 11.256 25.861 Z M9.328 61.861 L26 61.861 26 50.187 Z M46 50.189 L46 61.861 62.67 61.861 Z M0 45.861 L0 53.743 11.26 45.861 Z M62.674 9.861 L46 9.861 46 21.535 Z M72 53.745 L72 45.861 60.738 45.861 Z M72 25.861 L72 17.979 60.742 25.861 Z M26 9.861 L9.328 9.861 26 21.535 Z"/><path fill="#cf1b2b" d="M50.28 45.861 L69.704 59.463 C70.646 58.505 71.32 57.299 71.684 55.965 L57.254 45.861 Z M26 45.861 L21.718 45.861 2.296 59.461 C3.338 60.521 4.674 61.279 6.172 61.631 L26 47.747 Z M46 25.861 L50.282 25.861 69.704 12.261 C68.662 11.201 67.328 10.443 65.83 10.091 L46 23.975 Z M21.718 25.861 L2.296 12.261 C1.354 13.221 0.68 14.425 0.314 15.759 L14.744 25.861 Z"/><path fill="#eee" d="M72 41.861 L42 41.861 42 61.861 46 61.861 46 50.189 62.67 61.861 64 61.861 C66.234 61.861 68.252 60.939 69.704 59.463 L50.28 45.861 57.254 45.861 71.684 55.965 C71.87 55.291 72 54.593 72 53.861 L72 53.745 60.738 45.861 72 45.861 Z M0 41.861 L0 45.861 11.26 45.861 0 53.743 0 53.861 C0 56.043 0.878 58.017 2.296 59.461 L21.718 45.861 26 45.861 26 47.747 6.172 61.629 C6.76 61.769 7.368 61.861 8 61.861 L9.328 61.861 26 50.187 26 61.861 30 61.861 30 41.861 Z M72 17.861 C72 15.679 71.122 13.705 69.704 12.261 L50.282 25.861 46 25.861 46 23.975 65.83 10.091 C65.24 9.953 64.632 9.861 64 9.861 L62.674 9.861 46 21.535 46 9.861 42 9.861 42 29.861 72 29.861 72 25.861 60.742 25.861 72 17.979 Z M26 9.861 L26 21.535 9.328 9.861 8 9.861 C5.764 9.861 3.748 10.783 2.296 12.261 L21.718 25.861 14.744 25.861 0.314 15.759 C0.13 16.433 -0 17.129 -0 17.861 L-0 17.979 11.256 25.861 -0 25.861 -0 29.861 30 29.861 30 9.861 Z"/><path fill="#cf1b2b" d="M42 29.861 L42 9.861 30 9.861 30 29.861 0 29.861 0 41.861 30 41.861 30 61.861 42 61.861 42 41.861 72 41.861 72 29.861 Z"/><g><path fill="#f4900c" d="M72 20.054 C72 17.878 71.613 15.791 70.902 13.86 70.417 19.549 67.384 22.471 64.215 21.11 61.246 19.835 63.247 14.864 63.395 12.492 63.644 8.471 63.382 3.869 56.078 0.042 59.113 5.848 56.43 9.455 53.615 9.675 50.493 9.918 47.633 6.991 48.689 2.241 45.271 4.76 45.171 8.999 46.226 11.741 47.326 14.6 46.182 16.975 43.499 17.239 40.501 17.535 38.836 14.029 40.372 8.443 37.713 11.573 36.109 15.626 36.109 20.054 36.109 29.966 44.143 38 54.054 38 63.966 38 72 29.966 72 20.054 Z"/><path fill="#ffcc4d" d="M65.027 25.332 C65.183 28.587 62.323 29.863 60.784 29.247 58.561 28.357 59.157 26.828 58.585 23.662 58.013 20.495 55.814 18.296 52.56 17.328 54.935 24.013 51.243 26.477 49.308 26.917 47.332 27.367 45.347 26.916 45.12 22.687 42.814 24.982 41.387 28.157 41.387 31.666 41.387 32.055 41.411 32.437 41.445 32.817 44.686 36.02 49.137 38 54.054 38 58.972 38 63.423 36.02 66.664 32.817 66.698 32.437 66.722 32.055 66.722 31.666 66.722 29.358 66.105 27.195 65.027 25.332 Z"/></g></svg>
